icons/SVG/diagnose_icon.svg

<?xml version="1.0" encoding="UTF-8"?>
<svg width="300px" height="260px" viewBox="0 0 300 260" version="1.1" xmlns="http://www.w3.org/2000/svg" xmlns:xlink="http://www.w3.org/1999/xlink">
    <!-- Generator: Sketch 42 (36781) - http://www.bohemiancoding.com/sketch -->
    <title>diagnose_icon</title>
    <desc>Created with Sketch.</desc>
    <defs></defs>
    <g id="Page-1" stroke="none" stroke-width="1" fill="none" fill-rule="evenodd">
        <g id="diagnose_icon" fill="#1A1918">
            <g id="Diagnose_Icon">
                <path d="M80.3781878,249.963381 L219.622074,249.963381 L289.24369,130.000098 L219.622074,10.0361629 L80.3781878,10.0361629 L10.7562445,130.000098 L80.3781878,249.963381 Z M222.458319,259.737817 L77.5419432,259.737817 C75.7868122,259.737817 74.1649782,258.806313 73.2875764,257.294208 L0.829388646,132.444033 C-0.0483406114,130.931602 -0.0483406114,129.068594 0.829388646,127.556489 L73.2875764,2.70533584 C74.1649782,1.19323058 75.7868122,0.261726817 77.5419432,0.261726817 L222.458319,0.261726817 C224.21345,0.261726817 225.834956,1.19323058 226.712686,2.70533584 L299.170546,127.556489 C300.048275,129.068594 300.048275,130.931602 299.170546,132.444033 L226.712686,257.294208 C225.834956,258.806313 224.21345,259.737817 222.458319,259.737817 L222.458319,259.737817 Z" id="Fill-1"></path>
                <path d="M157.288395,83.2844185 C138.616998,83.2749699 123.441124,98.4211103 123.45488,117.049231 C123.469945,135.589381 138.845273,150.785371 157.461321,150.660584 C175.854989,150.536449 191.058373,135.417351 191.128461,117.18314 C191.198548,98.8228396 175.695491,83.2938672 157.288395,83.2844185 M160.704007,71.9939674 C175.741015,72.662213 189.834138,80.9714612 197.950186,97.7391805 C205.786212,113.925647 204.126714,129.942689 193.250076,144.239105 C182.215251,158.741762 167.043635,164.474469 149.026277,161.002589 C143.467107,159.932288 139.952587,160.658203 136.642434,165.391637 C133.351932,170.097702 129.110338,174.149206 125.269945,178.475371 C118.573002,186.018955 109.833046,187.213717 102.973985,181.536073 C95.9763865,175.741461 95.7248581,166.71086 102.4575,158.758053 C106.646692,153.811536 110.822456,148.837326 115.315251,144.170684 C117.729334,141.663867 118.158046,139.766649 116.543745,136.461586 C102.016343,106.731987 123.887849,72.0812857 160.704007,71.9939674" id="Fill-3"></path>
            </g>
        </g>
    </g>
</svg>

<svg width="300" height="260" viewBox="0 0 300 260" xmlns="http://www.w3.org/2000/svg"><title>diagnose_icon</title><g fill="#57B8BA" fill-rule="evenodd"><path d="M80.378 249.963h139.244L289.244 130 219.622 10.036H80.378L10.756 130l69.622 119.963zm142.08 9.775H77.542a4.917 4.917 0 0 1-4.254-2.444L.829 132.444a4.865 4.865 0 0 1 0-4.888L73.288 2.706A4.917 4.917 0 0 1 77.542.261h144.916c1.755 0 3.377.931 4.255 2.443l72.458 124.851a4.865 4.865 0 0 1 0 4.888l-72.458 124.85a4.917 4.917 0 0 1-4.255 2.444z"/><path d="M157.288 83.284c-18.671-.009-33.847 15.137-33.833 33.765.015 18.54 15.39 33.736 34.006 33.612 18.394-.125 33.597-15.244 33.667-33.478.07-18.36-15.433-33.89-33.84-33.899m3.416-11.29c15.037.668 29.13 8.977 37.246 25.745 7.836 16.187 6.177 32.204-4.7 46.5-11.035 14.503-26.206 20.235-44.224 16.764-5.559-1.07-9.073-.345-12.384 4.389-3.29 4.706-7.532 8.757-11.372 13.083-6.697 7.544-15.437 8.739-22.296 3.061-6.998-5.795-7.25-14.825-.517-22.778 4.19-4.946 8.365-9.92 12.858-14.587 2.414-2.507 2.843-4.404 1.229-7.71-14.528-29.729 7.344-64.38 44.16-64.467"/></g></svg>
